assets/images/favicons/safari-pinned-tab.svg

<?xml version="1.0" encoding="UTF-8"?>
<svg width="16px" height="16px" viewBox="0 0 16 16" version="1.1" xmlns="http://www.w3.org/2000/svg" xmlns:xlink="http://www.w3.org/1999/xlink">
    <!-- Generator: Sketch 41.2 (35397) - http://www.bohemiancoding.com/sketch -->
    <title>Mask</title>
    <desc>Created with Sketch.</desc>
    <defs>
        <path d="M12869,779 C12873.4183,779 12877,775.418278 12877,771 C12877,766.581722 12873.4183,763 12869,763 C12864.5817,763 12861,766.581722 12861,771 C12861,775.418278 12864.5817,779 12869,779 Z M12869.2552,772.495864 C12869.6406,772.881239 12869.8306,773.279866 12869.8253,773.691758 C12869.82,774.10365 12869.6353,774.491671 12869.2711,774.855833 C12869.0838,775.043217 12868.8884,775.187289 12868.6851,775.288052 C12868.4818,775.388815 12868.275,775.443615 12868.0646,775.452454 C12867.8543,775.461293 12867.6457,775.422403 12867.4389,775.335782 C12867.232,775.24916 12867.0314,775.108624 12866.8369,774.914169 L12866.4869,774.564151 L12867.1869,773.864116 L12867.537,774.214133 C12867.7031,774.380304 12867.879,774.464272 12868.0646,774.46604 C12868.2503,774.467808 12868.4261,774.385608 12868.5923,774.219437 C12868.7479,774.063872 12868.823,773.89682 12868.8177,773.718275 C12868.8124,773.539729 12868.7249,773.365606 12868.5552,773.1959 L12866.6142,771.254891 L12866.2323,771.636729 L12865.5747,770.97912 L12866.9748,769.579048 L12867.6324,770.236658 L12867.3142,770.554856 L12869.2552,772.495864 Z M12871.944,770.910177 C12872.0784,770.775826 12872.1685,770.645013 12872.2145,770.517733 C12872.2604,770.390453 12872.2728,770.268478 12872.2516,770.151805 C12872.2304,770.035132 12872.1835,769.92288 12872.1111,769.815045 C12872.0386,769.707211 12871.9546,769.605565 12871.8592,769.510106 L12871.7637,769.414646 L12872.4637,768.71461 L12872.5592,768.81007 C12873.0011,769.252014 12873.2256,769.708093 12873.2327,770.178321 C12873.2398,770.64855 12873.0223,771.104629 12872.5804,771.546573 C12872.1561,771.970839 12871.6912,772.177666 12871.1856,772.167059 C12870.68,772.156453 12870.1798,771.903664 12869.6848,771.408687 L12868.8575,770.581372 C12868.6206,770.34449 12868.4394,770.099657 12868.3139,769.846865 C12868.1884,769.594073 12868.1212,769.343053 12868.1124,769.093796 C12868.1035,768.84454 12868.1495,768.600591 12868.2503,768.361941 C12868.351,768.123291 12868.5075,767.897903 12868.7196,767.68577 C12868.9388,767.466566 12869.1651,767.303933 12869.3984,767.197866 C12869.6318,767.0918 12869.866,767.041419 12870.1011,767.046722 C12870.3362,767.052026 12870.5678,767.110361 12870.7958,767.221731 C12871.0239,767.333101 12871.244,767.49485 12871.4561,767.706983 L12871.5516,767.802443 L12870.8515,768.502478 L12870.7561,768.407019 C12870.6677,768.31863 12870.5687,768.240849 12870.4591,768.173674 C12870.3495,768.106498 12870.2346,768.062304 12870.1144,768.041091 C12869.9942,768.019878 12869.8695,768.0296 12869.7405,768.070259 C12869.6114,768.110918 12869.4833,768.194886 12869.356,768.322166 C12869.2393,768.438839 12869.1607,768.561698 12869.12,768.690746 C12869.0793,768.819793 12869.0687,768.950607 12869.0882,769.08319 C12869.1076,769.215773 12869.1545,769.345703 12869.2287,769.472982 C12869.303,769.600262 12869.3949,769.718701 12869.5045,769.828304 L12870.4379,770.761685 C12870.5581,770.881893 12870.6809,770.980003 12870.8064,771.056018 C12870.932,771.132032 12871.0584,771.180645 12871.1856,771.201858 C12871.3129,771.223072 12871.4402,771.210698 12871.5675,771.164735 C12871.6948,771.118773 12871.8203,771.033921 12871.944,770.910177 Z" id="path-1"></path>
    </defs>
    <g id="Page-1" stroke="none" stroke-width="1" fill="none" fill-rule="evenodd">
        <g id="Final-Logos" transform="translate(-12861.000000, -763.000000)">
            <mask id="mask-2" fill="white">
                <use xlink:href="#path-1"></use>
            </mask>
            <use id="Mask" fill="#000000" xlink:href="#path-1"></use>
        </g>
    </g>
</svg>

<svg width="16" height="16" viewBox="0 0 16 16" xmlns="http://www.w3.org/2000/svg" xmlns:xlink="http://www.w3.org/1999/xlink"><title>Mask</title><defs><path d="M12869 779a8 8 0 1 0 0-16 8 8 0 0 0 0 16zm.255-6.504c.386.385.576.784.57 1.196-.005.412-.19.8-.554 1.164a2.243 2.243 0 0 1-.586.432 1.447 1.447 0 0 1-1.246.048 1.9 1.9 0 0 1-.602-.422l-.35-.35.7-.7.35.35c.166.166.342.25.528.252.185.002.361-.08.527-.247.156-.155.231-.322.226-.5-.006-.18-.093-.353-.263-.523l-1.94-1.941-.383.382-.657-.658 1.4-1.4.657.658-.318.318 1.941 1.94zm2.689-1.586c.134-.134.225-.265.27-.392a.698.698 0 0 0 .038-.366.885.885 0 0 0-.14-.337 2.047 2.047 0 0 0-.253-.305l-.095-.095.7-.7.095.095c.442.442.667.898.674 1.368.007.47-.21.927-.653 1.369-.424.424-.889.63-1.394.62-.506-.01-1.006-.263-1.501-.758l-.827-.828a2.824 2.824 0 0 1-.544-.734 1.705 1.705 0 0 1-.064-1.485c.101-.239.257-.464.47-.676.219-.22.445-.382.678-.488.234-.106.468-.157.703-.151.235.005.467.063.695.175.228.111.448.273.66.485l.096.095-.7.7-.096-.095a1.602 1.602 0 0 0-.297-.233.982.982 0 0 0-.345-.133.78.78 0 0 0-.373.03.968.968 0 0 0-.385.251.914.914 0 0 0-.236.369.868.868 0 0 0-.032.392c.02.133.067.263.14.39.075.127.167.246.276.355l.934.934c.12.12.243.218.368.294.126.076.252.125.38.146a.746.746 0 0 0 .381-.037c.128-.046.253-.131.377-.255z" id="a"/></defs><use fill="#000" xlink:href="#a" transform="translate(-12861 -763)" fill-rule="evenodd"/></svg>
